X:66
T:Bwmba
M:4/4
L:1/4
Q:180
C:Trad.
R:Processional
K:D
A | D F/2E/2 D F | A F E2 | D F D F |
D/2 E/2 F/2G/2 A>A | B B G B | d B A>A | d d d F|
G A B>B | A A G F | E2 D2 |
D/2E/2 F/2E/2 D/2E/2 F/2E/2 | D/2E/2 F/2G/2 A A |
B B G B | d B A>A | d d d F | G A B>B |
A A G F | E2 D ||
